svg/u1f468_1f3fb_200d_2764_200d_1f48b_200d_1f468_1f3fb.svg

<svg viewBox="0 0 128 128" xmlns="http://www.w3.org/2000/svg">
  <g>
    <g id="head_340_">
      <path d="M25.73,34.74c27.05,0,31.37,19.51,31.37,47.59c0,23.97-10.35,39.27-28.5,41.22 c-9.35,1-17.91-0.79-24.6-5.64V40.6C9.31,36.83,16.38,34.74,25.73,34.74z" fill="#F9DDBD"/>
    </g>
    <g id="eyebrows_170_">
      <path d="M55.1,77.19c-3.34-4.73-11.18-4.89-15.1-0.86c-0.68,0.7-1.4,1.61-0.89,2.62 c0.57,1.12,1.73,0.94,2.69,0.55c2.55-1.03,5.17-1.49,7.91-0.93c1.18,0.24,2.2,0.73,3.32,1.13C54.53,80.23,56.08,78.65,55.1,77.19z " fill="#454140"/>
      <path d="M7.87,79.71c2.34-1.02,4.71-1.6,7.29-1.31c1.17,0.13,2.32,0.44,3.42,0.87 c0.87,0.34,1.81,0.9,2.7,0.29c2.57-1.77-1.99-4.65-3.32-5.23c-2.9-1.25-6.35-1.14-9.15,0.32c-1.11,0.58-2.32,1.42-2.98,2.52 C5.01,78.54,6.25,80.37,7.87,79.71z" fill="#454140"/>
    </g>
    <g id="eyes_167_">
      <path d="M19.35,85.64c0.67-0.79,1.07-0.16,1.2,0.36c0.45,1.76-0.25,4.54-3.47,5.43 c-4.36,1.2-8.76-1.42-9.25-4.98c-0.06-0.44,0.43-0.77,0.82-0.55c1.31,0.72,2.93,2.23,6.3,1.88 C18.23,87.45,18.63,86.49,19.35,85.64z" fill="#312D2D"/>
      <path d="M52.2,85.64c0.67-0.79,1.07-0.16,1.2,0.36c0.45,1.76-0.25,4.54-3.47,5.43 c-4.36,1.2-8.76-1.42-9.25-4.98c-0.06-0.44,0.43-0.77,0.82-0.55c1.31,0.72,2.93,2.23,6.3,1.88C51.08,87.45,51.48,86.49,52.2,85.64 z" fill="#312D2D"/>
    </g>
    <path id="mouth_99_" d="M36.35,114.85c3.02,0.38,8.02-2.23,6.91-5.19c-0.42-1.12-2.1-1.45-2.1-1.45 s2.76-3.12,1.34-4.76c-1.91-2.21-5.07-0.59-7.43-1.27c-0.48-0.14-0.99-0.36-1.46-0.2c0.2,0.94,0.76,1.62,1.95,2.04 c1.34,0.47,2.8,0.2,3.54,0.83c0.76,0.66,0.11,1.59-0.87,2.17c-1.39,0.82-3.47,1.24-3.37,1.9c0.11,0.72,2.49,0.8,3.02,0.95 c0.48,0.14,1.18,0.32,1.39,0.83c0.38,0.89-0.93,1.85-1.6,2.25c-0.74,0.44-2.61,0.93-2.68,0.99c-0.14,0.12-0.11,0.37,0.02,0.51 C35.14,114.6,36.06,114.81,36.35,114.85z" fill="#444444"/>
    <path id="nose_169_" d="M38.35,93.53c-0.11-0.04-0.22-0.07-0.33-0.09h-7.33c-0.11,0.01-0.22,0.04-0.33,0.09 c-0.66,0.27-1.03,0.96-0.72,1.69c0.31,0.73,1.77,2.79,4.71,2.79c2.94,0,4.4-2.06,4.71-2.79C39.37,94.49,39.01,93.8,38.35,93.53z" fill="#DBA689"/>
    <g id="hair_586_">
      <path id="hair_587_" d="M21.96,28.41L21.96,28.41c0.01,0,0.01,0,0.02,0c0.01,0,0.01,0,0.02,0v0 c47.64,0.25,37.88,54.66,37.88,54.66s-0.61,3.94-1.53,5.65c-1.1,2.06-1.85,2.81-1.92,1.64c-0.07-1.16-0.01-19.44-1.85-24.35 c-1.09-2.89-4.08-4.56-7.12-4.02c-7.58,1.35-9.78,1.28-14.5,1.32c-8.41,0.07-18.46-0.98-23.13-1.83c-2.2-0.4-4.38,0.39-5.82,1.94 v-31.6C8.79,29.72,14.69,28.45,21.96,28.41z" fill="#312D2D"/>
      <radialGradient id="hairHighlights_1_" cx="1218.2842" cy="71.2396" gradientTransform="matrix(-0.9998 -0.0217 -0.0243 1.1197 1241.6937 17.8958)" gradientUnits="userSpaceOnUse" r="38.0829">
        <stop offset="0.6679" stop-color="#454140" stop-opacity="0"/>
        <stop offset="1" stop-color="#454140"/>
      </radialGradient>
      <path id="hairHighlights_25_" d="M21.96,28.41L21.96,28.41c0.01,0,0.01,0,0.02,0 c0.01,0,0.01,0,0.02,0v0c47.64,0.25,37.88,54.66,37.88,54.66s-0.61,3.94-1.53,5.65c-1.1,2.06-1.85,2.81-1.92,1.64 c-0.07-1.16-0.01-19.44-1.85-24.35c-1.09-2.89-4.08-4.56-7.12-4.02c-7.58,1.35-10.91,1.32-15.63,1.25 c-9.75-0.13-17.32-0.91-21.99-1.76c-2.2-0.4-4.38,0.39-5.82,1.94v-31.6C8.79,29.72,14.69,28.45,21.96,28.41z" fill="url(#hairHighlights_1_)"/>
    </g>
  </g>
  <g>
    <g id="head_331_">
      <path d="M102.27,34.74c-27.05,0-31.37,19.51-31.37,47.59c0,23.97,10.35,39.27,28.5,41.22 c9.35,1,17.91-0.79,24.6-5.64V40.6C118.69,36.83,111.62,34.74,102.27,34.74z" fill="#F9DDBD"/>
    </g>
    <g id="eyebrows_176_">
      <path d="M72.9,77.19c3.34-4.73,11.18-4.89,15.1-0.86c0.68,0.7,1.4,1.61,0.89,2.62 c-0.57,1.12-1.73,0.94-2.69,0.55c-2.55-1.03-5.17-1.49-7.91-0.93c-1.18,0.24-2.2,0.73-3.32,1.13 C73.47,80.23,71.92,78.65,72.9,77.19z" fill="#454140"/>
      <path d="M120.13,79.71c-2.34-1.02-4.71-1.6-7.29-1.31c-1.17,0.13-2.32,0.44-3.42,0.87 c-0.87,0.34-1.81,0.9-2.7,0.29c-2.57-1.77,1.99-4.65,3.32-5.23c2.9-1.25,6.35-1.14,9.15,0.32c1.11,0.58,2.32,1.42,2.98,2.52 C122.99,78.54,121.75,80.37,120.13,79.71z" fill="#454140"/>
    </g>
    <g id="eyes_173_">
      <path d="M108.65,85.64c-0.67-0.79-1.07-0.16-1.2,0.36c-0.45,1.76,0.25,4.54,3.47,5.43 c4.36,1.2,8.76-1.42,9.25-4.98c0.06-0.44-0.43-0.77-0.82-0.55c-1.31,0.72-2.93,2.23-6.3,1.88 C109.77,87.45,109.37,86.49,108.65,85.64z" fill="#312D2D"/>
      <path d="M75.8,85.64c-0.67-0.79-1.07-0.16-1.2,0.36c-0.45,1.76,0.25,4.54,3.47,5.43 c4.36,1.2,8.76-1.42,9.25-4.98c0.06-0.44-0.43-0.77-0.82-0.55c-1.31,0.72-2.93,2.23-6.3,1.88C76.92,87.45,76.52,86.49,75.8,85.64z " fill="#312D2D"/>
    </g>
    <path id="mouth_95_" d="M91.65,114.85c-3.02,0.38-8.02-2.23-6.91-5.19c0.42-1.12,2.1-1.45,2.1-1.45 s-2.76-3.12-1.34-4.76c1.91-2.21,5.07-0.59,7.43-1.27c0.48-0.14,0.99-0.36,1.46-0.2c-0.2,0.94-0.76,1.62-1.95,2.04 c-1.34,0.47-2.8,0.2-3.54,0.83c-0.76,0.66-0.11,1.59,0.87,2.17c1.39,0.82,3.47,1.24,3.37,1.9c-0.11,0.72-2.49,0.8-3.02,0.95 c-0.48,0.14-1.18,0.32-1.39,0.83c-0.38,0.89,0.93,1.85,1.6,2.25c0.74,0.44,2.61,0.93,2.68,0.99c0.14,0.12,0.11,0.37-0.02,0.51 C92.86,114.6,91.94,114.81,91.65,114.85z" fill="#444444"/>
    <path id="nose_180_" d="M89.65,93.53c0.11-0.04,0.22-0.07,0.33-0.09h7.33c0.11,0.01,0.22,0.04,0.33,0.09 c0.66,0.27,1.03,0.96,0.72,1.69c-0.31,0.73-1.77,2.79-4.71,2.79c-2.94,0-4.4-2.06-4.71-2.79C88.63,94.49,88.99,93.8,89.65,93.53z" fill="#DBA689"/>
    <g id="hair_613_">
      <path id="hair_588_" d="M106.04,28.41L106.04,28.41c-0.01,0-0.01,0-0.02,0c-0.01,0-0.01,0-0.02,0v0 c-47.64,0.25-37.88,54.66-37.88,54.66s0.61,3.94,1.53,5.65c1.1,2.06,1.85,2.81,1.92,1.64c0.07-1.16,0.01-19.44,1.85-24.35 c1.09-2.89,4.08-4.56,7.12-4.02c7.58,1.35,9.78,1.28,14.5,1.32c8.41,0.07,18.46-0.98,23.13-1.83c2.2-0.4,4.38,0.39,5.82,1.94 v-31.6C119.21,29.72,113.31,28.45,106.04,28.41z" fill="#312D2D"/>
      <radialGradient id="hairHighlights_2_" cx="106.7042" cy="74.3587" gradientTransform="matrix(0.9998 -0.0217 0.0243 1.1197 -1.7809 -6.5844)" gradientUnits="userSpaceOnUse" r="39.6188">
        <stop offset="0.6679" stop-color="#454140" stop-opacity="0"/>
        <stop offset="1" stop-color="#454140"/>
      </radialGradient>
      <path id="hairHighlights_24_" d="M106.04,28.41L106.04,28.41c-0.01,0-0.01,0-0.02,0 c-0.01,0-0.01,0-0.02,0v0c-47.64,0.25-37.88,54.66-37.88,54.66s0.61,3.94,1.53,5.65c1.1,2.06,1.85,2.81,1.92,1.64 c0.07-1.16,0.01-19.44,1.85-24.35c1.09-2.89,4.08-4.56,7.12-4.02c7.58,1.35,10.91,1.32,15.63,1.25 c9.75-0.13,17.32-0.91,21.99-1.76c2.2-0.4,4.38,0.39,5.82,1.94v-31.6C119.21,29.72,113.31,28.45,106.04,28.41z" fill="url(#hairHighlights_2_)"/>
    </g>
  </g>
  <g>
    <path d="M78.41,3.74C67.87,3.74,64,14.5,64,14.5S60.18,3.74,49.57,3.74c-7.97,0-17.07,6.32-13.71,20.68 c3.36,14.36,28.16,32.26,28.16,32.26s24.72-17.9,28.08-32.26C95.46,10.06,87.02,3.74,78.41,3.74z" fill="#EF5592"/>
    <g>
      <path d="M47.94,4.81c8.27,0,12.38,8.89,13.71,12.5c0.19,0.51,0.91,0.53,1.12,0.03l1.21-2.83 c-1.71-5.45-6.4-10.77-14.41-10.77c-3.32,0-6.82,1.1-9.55,3.41C42.42,5.56,45.25,4.81,47.94,4.81z" fill="#DA2E75"/>
      <path d="M78.41,3.74c-2.55,0-4.7,0.74-6.51,1.85c1.27-0.49,2.68-0.78,4.23-0.78 c7.8,0,14.77,5.91,11.62,19.58c-2.7,11.73-18.5,25.96-23.32,31.39c-0.31,0.35-0.41,0.91-0.41,0.91s24.72-17.9,28.08-32.26 C95.46,10.06,86.38,3.74,78.41,3.74z" fill="#DA2E75"/>
    </g>
    <path d="M41.4,11.36c1.8-2.25,5.03-4.11,7.76-1.97c1.48,1.16,0.83,3.54-0.49,4.54 c-1.93,1.46-3.6,2.34-4.77,4.63c-0.7,1.38-1.13,2.88-1.34,4.42c-0.08,0.61-0.88,0.75-1.18,0.22 C39.34,19.6,38.77,14.65,41.4,11.36z" fill="#F386AB"/>
    <path d="M70.31,16.09c-0.85,0-1.44-0.82-1.13-1.61c0.57-1.45,1.31-2.86,2.2-4.11 c1.32-1.85,3.82-2.92,5.41-1.81c1.63,1.15,1.42,3.43,0.27,4.54C74.61,15.49,71.53,16.09,70.31,16.09z" fill="#F386AB"/>
  </g>
</svg>

<svg viewBox="0 0 128 128" xmlns="http://www.w3.org/2000/svg">
  <defs>
    <radialGradient id="hairHighlights_1_" cx="-23.461442" cy="63.157006" gradientTransform="matrix(-0.9998 -0.0217 -0.0243 1.1197 0 0)" gradientUnits="userSpaceOnUse" r="38.0829">
      <stop offset="0.6679" stop-color="#454140" stop-opacity="0"/>
      <stop offset="1" stop-color="#454140"/>
    </radialGradient>
    <radialGradient id="hairHighlights_2_" cx="105.06664" cy="68.44646" gradientTransform="matrix(0.9998 -0.0217 0.0243 1.1197 0 0)" gradientUnits="userSpaceOnUse" r="39.6188">
      <stop offset="0.6679" stop-color="#454140" stop-opacity="0"/>
      <stop offset="1" stop-color="#454140"/>
    </radialGradient>
  </defs>
  <path d="M25.73,34.74 C52.78,34.74 57.1,54.25 57.1,82.33 C57.1,106.3 46.75,121.6 28.6,123.55 C19.25,124.55 10.69,122.76 4,117.91 L4,40.6 C9.31,36.83 16.38,34.74 25.73,34.74 Z" fill="#F9DDBD"/>
  <path d="M55.1,77.19 C51.76,72.46 43.92,72.3 40,76.33 C39.32,77.03 38.6,77.94 39.11,78.95 C39.68,80.07 40.84,79.89 41.8,79.5 C44.35,78.47 46.97,78.01 49.71,78.57 C50.89,78.81 51.91,79.3 53.03,79.7 C54.53,80.23 56.08,78.65 55.1,77.19 Z" fill="#454140"/>
  <path d="M7.87,79.71 C10.21,78.69 12.58,78.11 15.16,78.4 C16.33,78.53 17.48,78.84 18.58,79.27 C19.45,79.61 20.39,80.17 21.28,79.56 C23.85,77.79 19.29,74.91 17.96,74.33 C15.06,73.08 11.61,73.19 8.81,74.65 C7.7,75.23 6.49,76.07 5.83,77.17 C5.01,78.54 6.25,80.37 7.87,79.71 Z" fill="#454140"/>
  <path d="M19.35,85.64 C20.02,84.85 20.42,85.48 20.55,86 C21,87.76 20.3,90.54 17.08,91.43 C12.72,92.63 8.32,90.01 7.83,86.45 C7.77,86.01 8.26,85.68 8.65,85.9 C9.96,86.62 11.58,88.13 14.95,87.78 C18.23,87.45 18.63,86.49 19.35,85.64 Z" fill="#312D2D"/>
  <path d="M52.2,85.64 C52.87,84.85 53.27,85.48 53.4,86 C53.85,87.76 53.15,90.54 49.93,91.43 C45.57,92.63 41.17,90.01 40.68,86.45 C40.62,86.01 41.11,85.68 41.5,85.9 C42.81,86.62 44.43,88.13 47.8,87.78 C51.08,87.45 51.48,86.49 52.2,85.64 Z" fill="#312D2D"/>
  <path id="mouth_99_" d="M36.35,114.85 C39.37,115.23 44.37,112.62 43.26,109.66 C42.84,108.54 41.16,108.21 41.16,108.21 C41.16,108.21 43.92,105.09 42.5,103.45 C40.59,101.24 37.43,102.86 35.07,102.18 C34.59,102.04 34.08,101.82 33.61,101.98 C33.81,102.92 34.37,103.6 35.56,104.02 C36.9,104.49 38.36,104.22 39.1,104.85 C39.86,105.51 39.21,106.44 38.23,107.02 C36.84,107.84 34.76,108.26 34.86,108.92 C34.97,109.64 37.35,109.72 37.88,109.87 C38.36,110.01 39.06,110.19 39.27,110.7 C39.65,111.59 38.34,112.55 37.67,112.95 C36.93,113.39 35.06,113.88 34.99,113.94 C34.85,114.06 34.88,114.31 35.01,114.45 C35.14,114.6 36.06,114.81 36.35,114.85 Z" fill="#444444"/>
  <path id="nose_169_" d="M38.35,93.53 C38.24,93.49 38.13,93.46 38.02,93.44 L30.69,93.44 C30.58,93.45 30.47,93.48 30.36,93.53 C29.7,93.8 29.33,94.49 29.64,95.22 C29.95,95.95 31.41,98.01 34.35,98.01 C37.29,98.01 38.75,95.95 39.06,95.22 C39.37,94.49 39.01,93.8 38.35,93.53 Z" fill="#DBA689"/>
  <path id="hair_587_" d="M21.96,28.41 L21.96,28.41 C21.97,28.41 21.97,28.41 21.98,28.41 C21.99,28.41 21.99,28.41 22,28.41 L22,28.41 C69.64,28.66 59.88,83.07 59.88,83.07 C59.88,83.07 59.27,87.01 58.35,88.72 C57.25,90.78 56.5,91.53 56.43,90.36 C56.36,89.2 56.42,70.92 54.58,66.01 C53.49,63.12 50.5,61.45 47.46,61.99 C39.88,63.34 37.68,63.27 32.96,63.31 C24.55,63.38 14.5,62.33 9.83,61.48 C7.63,61.08 5.45,61.87 4.01,63.42 L4.01,31.82 C8.79,29.72 14.69,28.45 21.96,28.41 Z" fill="#312D2D"/>
  <path id="hairHighlights_25_" d="M21.96,28.41 L21.96,28.41 C21.97,28.41 21.97,28.41 21.98,28.41 C21.99,28.41 21.99,28.41 22,28.41 L22,28.41 C69.64,28.66 59.88,83.07 59.88,83.07 C59.88,83.07 59.27,87.01 58.35,88.72 C57.25,90.78 56.5,91.53 56.43,90.36 C56.36,89.2 56.42,70.92 54.58,66.01 C53.49,63.12 50.5,61.45 47.46,61.99 C39.88,63.34 36.55,63.31 31.83,63.24 C22.08,63.11 14.51,62.33 9.84,61.48 C7.64,61.08 5.46,61.87 4.02,63.42 L4.02,31.82 C8.79,29.72 14.69,28.45 21.96,28.41 Z" fill="url(#hairHighlights_1_)"/>
  <path d="M102.27,34.74 C75.22,34.74 70.9,54.25 70.9,82.33 C70.9,106.3 81.25,121.6 99.4,123.55 C108.75,124.55 117.31,122.76 124,117.91 L124,40.6 C118.69,36.83 111.62,34.74 102.27,34.74 Z" fill="#F9DDBD"/>
  <path d="M72.9,77.19 C76.24,72.46 84.08,72.3 88,76.33 C88.68,77.03 89.4,77.94 88.89,78.95 C88.32,80.07 87.16,79.89 86.2,79.5 C83.65,78.47 81.03,78.01 78.29,78.57 C77.11,78.81 76.09,79.3 74.97,79.7 C73.47,80.23 71.92,78.65 72.9,77.19 Z" fill="#454140"/>
  <path d="M120.13,79.71 C117.79,78.69 115.42,78.11 112.84,78.4 C111.67,78.53 110.52,78.84 109.42,79.27 C108.55,79.61 107.61,80.17 106.72,79.56 C104.15,77.79 108.71,74.91 110.04,74.33 C112.94,73.08 116.39,73.19 119.19,74.65 C120.3,75.23 121.51,76.07 122.17,77.17 C122.99,78.54 121.75,80.37 120.13,79.71 Z" fill="#454140"/>
  <path d="M108.65,85.64 C107.98,84.85 107.58,85.48 107.45,86 C107,87.76 107.7,90.54 110.92,91.43 C115.28,92.63 119.68,90.01 120.17,86.45 C120.23,86.01 119.74,85.68 119.35,85.9 C118.04,86.62 116.42,88.13 113.05,87.78 C109.77,87.45 109.37,86.49 108.65,85.64 Z" fill="#312D2D"/>
  <path d="M75.8,85.64 C75.13,84.85 74.73,85.48 74.6,86 C74.15,87.76 74.85,90.54 78.07,91.43 C82.43,92.63 86.83,90.01 87.32,86.45 C87.38,86.01 86.89,85.68 86.5,85.9 C85.19,86.62 83.57,88.13 80.2,87.78 C76.92,87.45 76.52,86.49 75.8,85.64 Z" fill="#312D2D"/>
  <path id="mouth_95_" d="M91.65,114.85 C88.63,115.23 83.63,112.62 84.74,109.66 C85.16,108.54 86.84,108.21 86.84,108.21 C86.84,108.21 84.08,105.09 85.5,103.45 C87.41,101.24 90.57,102.86 92.93,102.18 C93.41,102.04 93.92,101.82 94.39,101.98 C94.19,102.92 93.63,103.6 92.44,104.02 C91.1,104.49 89.64,104.22 88.9,104.85 C88.14,105.51 88.79,106.44 89.77,107.02 C91.16,107.84 93.24,108.26 93.14,108.92 C93.03,109.64 90.65,109.72 90.12,109.87 C89.64,110.01 88.94,110.19 88.73,110.7 C88.35,111.59 89.66,112.55 90.33,112.95 C91.07,113.39 92.94,113.88 93.01,113.94 C93.15,114.06 93.12,114.31 92.99,114.45 C92.86,114.6 91.94,114.81 91.65,114.85 Z" fill="#444444"/>
  <path id="nose_180_" d="M89.65,93.53 C89.76,93.49 89.87,93.46 89.98,93.44 L97.31,93.44 C97.42,93.45 97.53,93.48 97.64,93.53 C98.3,93.8 98.67,94.49 98.36,95.22 C98.05,95.95 96.59,98.01 93.65,98.01 C90.71,98.01 89.25,95.95 88.94,95.22 C88.63,94.49 88.99,93.8 89.65,93.53 Z" fill="#DBA689"/>
  <path id="hair_588_" d="M106.04,28.41 L106.04,28.41 C106.03,28.41 106.03,28.41 106.02,28.41 C106.01,28.41 106.01,28.41 106,28.41 L106,28.41 C58.36,28.66 68.12,83.07 68.12,83.07 C68.12,83.07 68.73,87.01 69.65,88.72 C70.75,90.78 71.5,91.53 71.57,90.36 C71.64,89.2 71.58,70.92 73.42,66.01 C74.51,63.12 77.5,61.45 80.54,61.99 C88.12,63.34 90.32,63.27 95.04,63.31 C103.45,63.38 113.5,62.33 118.17,61.48 C120.37,61.08 122.55,61.87 123.99,63.42 L123.99,31.82 C119.21,29.72 113.31,28.45 106.04,28.41 Z" fill="#312D2D"/>
  <path id="hairHighlights_24_" d="M106.04,28.41 L106.04,28.41 C106.03,28.41 106.03,28.41 106.02,28.41 C106.01,28.41 106.01,28.41 106,28.41 L106,28.41 C58.36,28.66 68.12,83.07 68.12,83.07 C68.12,83.07 68.73,87.01 69.65,88.72 C70.75,90.78 71.5,91.53 71.57,90.36 C71.64,89.2 71.58,70.92 73.42,66.01 C74.51,63.12 77.5,61.45 80.54,61.99 C88.12,63.34 91.45,63.31 96.17,63.24 C105.92,63.11 113.49,62.33 118.16,61.48 C120.36,61.08 122.54,61.87 123.98,63.42 L123.98,31.82 C119.21,29.72 113.31,28.45 106.04,28.41 Z" fill="url(#hairHighlights_2_)"/>
  <path d="M78.41,3.74 C67.87,3.74 64,14.5 64,14.5 C64,14.5 60.18,3.74 49.57,3.74 C41.6,3.74 32.5,10.06 35.86,24.42 C39.22,38.78 64.02,56.68 64.02,56.68 C64.02,56.68 88.74,38.78 92.1,24.42 C95.46,10.06 87.02,3.74 78.41,3.74 Z" fill="#EF5592"/>
  <path d="M47.94,4.81 C56.21,4.81 60.32,13.7 61.65,17.31 C61.84,17.82 62.56,17.84 62.77,17.34 L63.98,14.51 C62.27,9.06 57.58,3.74 49.57,3.74 C46.25,3.74 42.75,4.84 40.02,7.15 C42.42,5.56 45.25,4.81 47.94,4.81 Z" fill="#DA2E75"/>
  <path d="M78.41,3.74 C75.86,3.74 73.71,4.48 71.9,5.59 C73.17,5.1 74.58,4.81 76.13,4.81 C83.93,4.81 90.9,10.72 87.75,24.39 C85.05,36.12 69.25,50.35 64.43,55.78 C64.12,56.13 64.02,56.69 64.02,56.69 C64.02,56.69 88.74,38.79 92.1,24.43 C95.46,10.06 86.38,3.74 78.41,3.74 Z" fill="#DA2E75"/>
  <path d="M41.4,11.36 C43.2,9.11 46.43,7.25 49.16,9.39 C50.64,10.55 49.99,12.93 48.67,13.93 C46.74,15.39 45.07,16.27 43.9,18.56 C43.2,19.94 42.77,21.44 42.56,22.98 C42.48,23.59 41.68,23.73 41.38,23.2 C39.34,19.6 38.77,14.65 41.4,11.36 Z" fill="#F386AB"/>
  <path d="M70.31,16.09 C69.46,16.09 68.87,15.27 69.18,14.48 C69.75,13.03 70.49,11.62 71.38,10.37 C72.7,8.52 75.2,7.45 76.79,8.56 C78.42,9.71 78.21,11.99 77.06,13.1 C74.61,15.49 71.53,16.09 70.31,16.09 Z" fill="#F386AB"/>
</svg>
